!!!OTL-incipit: ICH BIN EIN LUSTGER JAEGERSKNECHT
!!!ARE: Europa, Mitteleuropa, Deutschland, Herzogtum Berg
!!!SCT: Z0246
!!!TXL: @@DE
!!!YEM: Copyright 1995, estate of Helmut Schaffrath.
**kern	**text
*ICvox	*
*M2/4	*
*k[b-]	*
*F:	*
!LO:TX:a:t=Bergiſch.	!
!LO:TX:a:t=Jagdliedchen.	!
{8cc	Jch
=1	=1
8cc	bin
8cc	ein
8cc	luſt'-
8cc	-ger
=2	=2
8cc	Jä-
8cc	-gers-
4a	-Knecht,
=3	=3
8b-/	ſchieß
8b-/	auf-
4g}	-recht,
=4	=4
{8g	ſchieß
8g	auf
8g	ei-
8a	-nen
=5	=5
8b-	goldnen
8cc	.
4a;	Specht.
=6	=6
4r}	.
{8aL	Der
8b-J	.
=7	=7
4cc	Specht
4cc	hat
=8	=8
(8ccL	Gold-
8b-J)	.
8aL	-ge-
8ccJ	.
=9	=9
8ccL	-fie-
8b-J	.
8a}	-der,
{16aL	für
16ccJ	.
=10	=10
8b-/	Lieb-
16b-L	-chen
16aJ	.
8g	mein
16gL	gar
16b-J	.
=11	=11
8b-/	ſchö-
(16b-L	-ne
16aJ)	.
8g}	Ʒier,
{8g	für-
=12	=12
8f	-wahr,
8a	ich
8cc	ſchieß
8a	ihn
=13	=13
4g	nie-
8f}	-der.
==	==
!!!AGN: Jaeger - Lied
!!!ONB: ESAC (Essen Associative Code) Database: ZUCCAL
!!!AMT: simple duple
!!!AIN: vox
!!!EED: Helmut Schaffrath
!!!EEV: 1.0
!!!GTL: III. Soldaten-, Jaeger-, Schiffer-, Fuhrmanns- und Handwerks-Lieder.
!!!URL-scan:
!!!ENC: Anna Maria Matuszewska
!!!EEV: 2025/01/29
*-	*-
